X: 31214
T: Paddy Fahey's
R: jig
M: 6/8
K: Gmajor
GAB c2d|cBG ABc|dBd cAc|BGB AFD|
GAB c2d|cBG ABc|dfa gdc|BGF G3:|
gfg bag|fga gfd|gfg bag|fga g2f|
gdB GBd|cBG ABc|dfa gdc|BGF G3:|

